azure-icons/Peering-Service.svg

<svg xmlns="http://www.w3.org/2000/svg" viewBox="0 0 18 18"><defs><linearGradient id="a" x1="7.123" x2="7.123" y2="13.962" gradientUnits="userSpaceOnUse"><stop offset="0" stop-color="#0078d4"/><stop offset="1" stop-color="#005ba1"/></linearGradient></defs><circle cx="7.123" cy="6.981" r="6.981" fill="url(#a)"/><circle cx="11.022" cy="11.164" r="6.684" fill="#0078d4"/><path d="M17.858 10.94h-.011a6.835 6.835 0 100 .45h.011zm-2.835 0a7.851 7.851 0 00-.55-2.846h2.145a6.351 6.351 0 01.782 2.846zm-10.375.45h2.466a7.83 7.83 0 00.564 2.847h-2.25a6.334 6.334 0 01-.78-2.847zm6.284-3.746h-2.5a7.724 7.724 0 012.5-2.466zm.45-2.465a7.094 7.094 0 012.388 2.465h-2.388zm-.45 2.915v2.846H7.563a6.816 6.816 0 01.645-2.846zM7.113 10.94H4.648a6.338 6.338 0 01.779-2.846h2.287a7.364 7.364 0 00-.601 2.846zm.451.45h3.368v2.847H8.183a7.252 7.252 0 01-.619-2.847zm3.368 3.3v2.61A7.461 7.461 0 018.4 14.688zm.45 0h2.352a7.349 7.349 0 01-2.352 2.494zm0-.451V11.39h3.191a7.252 7.252 0 01-.619 2.847zm0-3.3V8.094h2.6a7.3 7.3 0 01.59 2.846zm4.962-3.3h-2.086a7.429 7.429 0 00-2.621-2.829 6.389 6.389 0 014.707 2.834zM10.7 4.8a8 8 0 00-2.759 2.844H5.7a6.379 6.379 0 015-2.844zm-5 9.888h2.2a7.648 7.648 0 002.558 2.833A6.387 6.387 0 015.7 14.688zm5.99 2.826a7.649 7.649 0 002.548-2.826h2.1a6.39 6.39 0 01-4.646 2.826zm4.925-3.277h-2.156a7.83 7.83 0 00.564-2.847H17.4a6.346 6.346 0 01-.783 2.847z" fill="#83b9f9"/><path d="M11.031 9.684a1.538 1.538 0 00-.663.154l-4.04-4.976a1.573 1.573 0 10-.707.548L9.7 10.438a1.539 1.539 0 00-.23.8 1.557 1.557 0 101.557-1.557z" fill="#42e8ca"/></svg>

<svg xmlns="http://www.w3.org/2000/svg" width="18" height="18" viewBox="0 0 18 18"><defs><linearGradient id="f40fb1ff-0852-4039-9599-71aa564b13c7" x1="7.123" x2="7.123" y2="13.962" gradientUnits="userSpaceOnUse"><stop offset="0" stop-color="#0078d4" /><stop offset="1" stop-color="#005ba1" /></linearGradient></defs><g id="a5954726-4807-4c57-b928-cf0999f8d145"><circle cx="7.123" cy="6.981" r="6.981" fill="url(#f40fb1ff-0852-4039-9599-71aa564b13c7)" /><circle cx="11.022" cy="11.164" r="6.684" fill="#0078d4" /><path d="M17.858,10.94h-.011a6.835,6.835,0,1,0,0,.45h.011Zm-2.835,0a7.851,7.851,0,0,0-.55-2.846h2.145A6.351,6.351,0,0,1,17.4,10.94Zm-10.375.45H7.114a7.83,7.83,0,0,0,.564,2.847H5.428A6.334,6.334,0,0,1,4.648,11.39Zm6.284-3.746h-2.5a7.724,7.724,0,0,1,2.5-2.466Zm.45-2.465A7.094,7.094,0,0,1,13.77,7.644H11.382Zm-.45,2.915V10.94H7.563a6.816,6.816,0,0,1,.645-2.846ZM7.113,10.94H4.648a6.338,6.338,0,0,1,.779-2.846H7.714A7.364,7.364,0,0,0,7.113,10.94Zm.451.45h3.368v2.847H8.183A7.252,7.252,0,0,1,7.564,11.39Zm3.368,3.3V17.3A7.461,7.461,0,0,1,8.4,14.688Zm.45,0h2.352a7.349,7.349,0,0,1-2.352,2.494Zm0-.451V11.39h3.191a7.252,7.252,0,0,1-.619,2.847Zm0-3.3V8.094h2.6a7.3,7.3,0,0,1,.59,2.846Zm4.962-3.3H14.258A7.429,7.429,0,0,0,11.637,4.81,6.389,6.389,0,0,1,16.344,7.644ZM10.7,4.8A8,8,0,0,0,7.941,7.644H5.7A6.379,6.379,0,0,1,10.7,4.8ZM5.7,14.688H7.9a7.648,7.648,0,0,0,2.558,2.833A6.387,6.387,0,0,1,5.7,14.688Zm5.99,2.826a7.649,7.649,0,0,0,2.548-2.826h2.1A6.39,6.39,0,0,1,11.692,17.514Zm4.925-3.277H14.459a7.83,7.83,0,0,0,.564-2.847H17.4A6.346,6.346,0,0,1,16.617,14.237Z" fill="#83b9f9" /><path d="M11.031,9.684a1.538,1.538,0,0,0-.663.154L6.328,4.862a1.573,1.573,0,1,0-.707.548L9.7,10.438a1.539,1.539,0,0,0-.23.8,1.557,1.557,0,1,0,1.557-1.557Z" fill="#42e8ca" /></g></svg>
